X: 365
T: Campbel has got his Wife again
%R: reel
Z: 2014 John Chambers <jc:trillian.mit.edu>
B: Preston "Twenty four Country Dances for the Year 1799" p.163 #1
F: http://www.vwml.org/browse/browse-collections-dance-tune-books/browse-prestons1799# 2014-8-10
M: C|
L: 1/8
K: D
c |\
dB AF A/A/A Ac | dB AF E/E/E EB |\
dBAF Agfe | dBAF D/D/D D :|
|: g |\
fdfa egfe | fdfa B/B/B Bg |\
fdfa egfe | dBAF D/D/D D :|
% - - - - - - - - - - - - - - - - - - - - - - - - -
%%begintext align
%% 1st Gent: follow his Part.r into 2d Cu.s place .|
%% 1st Lady follow her Part.r back to proper
%% places :| lead down the middle :|. Allemand :|:
%%endtext
% - - - - - - - - - - - - - - - - - - - - - - - - -

%%sep 1 1 500
%%sep 1 1 500
